X:1
T: Miss Mary Johnson's Reel
C:
R:Jig
Q:180
K:Em
M:6/8
L:1/16
B2|e6 G2F2E2|B6 G2F2E2|F2E2D2 A2G2F2|d2A2G2 F2E2D2|e6 G2F2E2|B6 G2F2E2|A2B2G2 A2G2F2|G2E2E2 E4B2|
e6 G2F2E2|B6 G2F2E2|F2E2D2 A2G2F2|d2A2G2 F2E2^D2|E2B,2E2 F2B,2F2|G2B,2G2 A2B,2A2|B2c2B2 A2G2F2|G2E2E2 E4f2|
g2f2e2 b2g2e2|g2f2e2 b2g2e2|f2e2d2 a2f2d2|f2e2d2 a2f2d2|g2f2e2 b2g2e2|g2f2e2 b2g2e2|B2b2a2 g2a2f2|g2e2e2 e4f2|
g2f2e2 b2g2e2|g2f2e2 b2g2e2|d2a2f2 g2f2e2|d2A2G2 F2E2D2|G2F2E2 A2G2F2|B2A2G2 c2B2A2|B2e2B2 A2G2F2|E2E2E2 E4||
